packages/example/src/components/WalletList/image/YellowCard.svg

<svg fill="none" height="135" viewBox="0 0 240 135" width="240" xmlns="http://www.w3.org/2000/svg" xmlns:xlink="http://www.w3.org/1999/xlink"><linearGradient id="a" gradientUnits="userSpaceOnUse" x1="0" x2="240" y1="0" y2="135"><stop offset="0" stop-color="#f5a631"/><stop offset="1" stop-color="#e07c09"/></linearGradient><radialGradient id="b" cx="0" cy="0" gradientTransform="matrix(120.00039899 68.00027518 -120.88872075 213.33288263 0 0)" gradientUnits="userSpaceOnUse" r="1"><stop offset="0" stop-color="#fff"/><stop offset="1" stop-color="#fff" stop-opacity="0"/></radialGradient><linearGradient id="c"><stop offset="0" stop-color="#fff" stop-opacity="0"/><stop offset="1" stop-color="#b4bacc"/></linearGradient><linearGradient id="d" gradientUnits="userSpaceOnUse" x1="124" x2="260" xlink:href="#c" y1="39" y2="175"/><linearGradient id="e" gradientUnits="userSpaceOnUse" x1="94" x2="230" xlink:href="#c" y1="49" y2="185"/><linearGradient id="f" gradientUnits="userSpaceOnUse" x1="199.396" x2="219.959" y1="95.9022" y2="110.542"><stop offset="0" stop-color="#fff"/><stop offset="1" stop-color="#fff" stop-opacity=".6"/></linearGradient><clipPath id="g"><path d="m0 0h240v135h-240z"/></clipPath><clipPath id="h"><path d="m124 39h136v136h-136z"/></clipPath><clipPath id="i"><path d="m94 49h136v136h-136z"/></clipPath><g clip-path="url(#g)"><path d="m0 0h240v135h-240z" fill="url(#a)"/><path d="m0 0h240v135h-240z" fill="url(#b)" fill-opacity=".12"/><g clip-path="url(#h)"><path d="m259.25 107c0 37.141-30.109 67.25-67.25 67.25s-67.25-30.109-67.25-67.25c0-37.1411 30.109-67.25 67.25-67.25s67.25 30.1089 67.25 67.25z" stroke="url(#d)" stroke-opacity=".2" stroke-width="1.5"/></g><g clip-path="url(#i)"><path d="m229.25 117c0 37.141-30.109 67.25-67.25 67.25s-67.25-30.109-67.25-67.25c0-37.1411 30.109-67.25 67.25-67.25s67.25 30.1089 67.25 67.25z" stroke="url(#e)" stroke-opacity=".2" stroke-width="1.5"/></g><path clip-rule="evenodd" d="m211.41 100.249c2.204.808 3.791 2.006 3.427 4.305-.275 1.674-1.152 2.492-2.337 2.78 1.577.883 2.336 2.223 1.524 4.573-1.01 2.948-3.27 3.215-6.264 2.644l-.771 3.111-1.739-.431.77-3.111c-.189-.05-.388-.097-.593-.144-.273-.064-.556-.13-.835-.21l-.771 3.111-1.736-.43.77-3.111-3.459-.942.86-2.2s1.306.359 1.285.337c.485.117.721-.221.818-.458l1.235-4.987.898-3.545c.039-.383-.081-.884-.789-1.075.048-.028-1.273-.315-1.273-.315l.515-2.085 3.565.8835.755-3.0473 1.795.4451-.754 3.0472c.349.076.69.1642 1.035.2534v.0001c.113.0293.227.0586.341.0877l.755-3.0472 1.747.433zm-4.766 4.9c.027.008.056.016.087.026 1.045.314 4.141 1.244 4.663-.828.485-1.969-2.197-2.571-3.444-2.85-.147-.033-.274-.062-.374-.088zm-1.374 6.143c-.055-.017-.105-.031-.151-.045l.932-3.739c.11.028.249.061.41.099 1.47.345 4.752 1.116 4.242 3.097-.495 2.056-4.146.971-5.433.588z" fill="url(#f)" fill-rule="evenodd"/></g></svg>

<svg width="240" height="135" viewBox="0 0 240 135" fill="none" xmlns="http://www.w3.org/2000/svg">
<g clip-path="url(#clip0_2679_14023)">
<rect width="240" height="135" fill="url(#paint0_linear_2679_14023)"/>
<rect width="240" height="135" fill="url(#paint1_radial_2679_14023)" fill-opacity="0.12"/>
<g clip-path="url(#clip1_2679_14023)">
<path d="M259.25 107C259.25 144.141 229.141 174.25 192 174.25C154.859 174.25 124.75 144.141 124.75 107C124.75 69.8589 154.859 39.75 192 39.75C229.141 39.75 259.25 69.8589 259.25 107Z" stroke="url(#paint2_linear_2679_14023)" stroke-opacity="0.2" stroke-width="1.5"/>
</g>
<g clip-path="url(#clip2_2679_14023)">
<path d="M229.25 117C229.25 154.141 199.141 184.25 162 184.25C124.859 184.25 94.75 154.141 94.75 117C94.75 79.8589 124.859 49.75 162 49.75C199.141 49.75 229.25 79.8589 229.25 117Z" stroke="url(#paint3_linear_2679_14023)" stroke-opacity="0.2" stroke-width="1.5"/>
</g>
<path fill-rule="evenodd" clip-rule="evenodd" d="M211.41 100.249C213.614 101.057 215.201 102.255 214.837 104.554C214.562 106.228 213.685 107.046 212.5 107.334C214.077 108.217 214.836 109.557 214.024 111.907C213.014 114.855 210.754 115.122 207.76 114.551L206.989 117.662L205.25 117.231L206.02 114.12C205.831 114.07 205.632 114.023 205.427 113.976C205.154 113.912 204.871 113.846 204.592 113.766L203.821 116.877L202.085 116.447L202.855 113.336L199.396 112.394L200.256 110.194C200.256 110.194 201.562 110.553 201.541 110.531C202.026 110.648 202.262 110.31 202.359 110.073L203.594 105.086L204.492 101.541C204.531 101.158 204.411 100.657 203.703 100.466C203.751 100.438 202.43 100.151 202.43 100.151L202.945 98.066L206.51 98.9495L207.265 95.9022L209.06 96.3473L208.306 99.3945C208.655 99.4705 208.996 99.5587 209.341 99.6479L209.341 99.648C209.454 99.6773 209.568 99.7066 209.682 99.7357L210.437 96.6885L212.184 97.1215L211.41 100.249ZM206.644 105.149C206.671 105.157 206.7 105.165 206.731 105.175C207.776 105.489 210.872 106.419 211.394 104.347C211.879 102.378 209.197 101.776 207.95 101.497C207.803 101.464 207.676 101.435 207.576 101.409L206.644 105.149ZM205.27 111.292C205.215 111.275 205.165 111.261 205.119 111.247L206.051 107.508C206.161 107.536 206.3 107.569 206.461 107.607C207.931 107.952 211.213 108.723 210.703 110.704C210.208 112.76 206.557 111.675 205.27 111.292Z" fill="url(#paint4_linear_2679_14023)"/>
</g>
<defs>
<linearGradient id="paint0_linear_2679_14023" x1="0" y1="0" x2="240" y2="135" gradientUnits="userSpaceOnUse">
<stop stop-color="#F5A631"/>
<stop offset="1" stop-color="#E07C09"/>
</linearGradient>
<radialGradient id="paint1_radial_2679_14023" cx="0" cy="0" r="1" gradientUnits="userSpaceOnUse" gradientTransform="rotate(29.5388) scale(137.928 245.204)">
<stop stop-color="white"/>
<stop offset="1" stop-color="white" stop-opacity="0"/>
</radialGradient>
<linearGradient id="paint2_linear_2679_14023" x1="124" y1="39" x2="260" y2="175" gradientUnits="userSpaceOnUse">
<stop stop-color="white" stop-opacity="0"/>
<stop offset="1" stop-color="#B4BACC"/>
</linearGradient>
<linearGradient id="paint3_linear_2679_14023" x1="94" y1="49" x2="230" y2="185" gradientUnits="userSpaceOnUse">
<stop stop-color="white" stop-opacity="0"/>
<stop offset="1" stop-color="#B4BACC"/>
</linearGradient>
<linearGradient id="paint4_linear_2679_14023" x1="199.396" y1="95.9022" x2="219.959" y2="110.542" gradientUnits="userSpaceOnUse">
<stop stop-color="white"/>
<stop offset="1" stop-color="white" stop-opacity="0.6"/>
</linearGradient>
<clipPath id="clip0_2679_14023">
<rect width="240" height="135" fill="white"/>
</clipPath>
<clipPath id="clip1_2679_14023">
<rect width="136" height="136" fill="white" transform="translate(124 39)"/>
</clipPath>
<clipPath id="clip2_2679_14023">
<rect width="136" height="136" fill="white" transform="translate(94 49)"/>
</clipPath>
</defs>
</svg>
